tests/manual/test-linear.cube
# Test 1D LUT - Linear ramp
TITLE "Test Linear Ramp"
LUT_1D_SIZE 11
DOMAIN_MIN 0.0 0.0 0.0
DOMAIN_MAX 1.0 1.0 1.0

# Linear ramp: input = output (no change)
0.0 0.0 0.0
0.1 0.1 0.1
0.2 0.2 0.2
0.3 0.3 0.3
0.4 0.4 0.4
0.5 0.5 0.5
0.6 0.6 0.6
0.7 0.7 0.7
0.8 0.8 0.8
0.9 0.9 0.9
1.0 1.0 1.0