tests/manual/test-gamma.cube
# Test 1D LUT - Gamma 2.2 curve
TITLE "Test Gamma 2.2"
LUT_1D_SIZE 11
DOMAIN_MIN 0.0 0.0 0.0
DOMAIN_MAX 1.0 1.0 1.0

# Gamma 2.2 curve: output = input^2.2
0.0 0.0 0.0
0.01 0.01 0.01
0.05 0.05 0.05
0.13 0.13 0.13
0.24 0.24 0.24
0.41 0.41 0.41
0.61 0.61 0.61
0.78 0.78 0.78
0.90 0.90 0.90
0.97 0.97 0.97
1.0 1.0 1.0