tests/manual/test-half.cube
# Test 1D LUT - Half intensity
TITLE "Test Half Intensity"
LUT_1D_SIZE 11
DOMAIN_MIN 0.0 0.0 0.0
DOMAIN_MAX 1.0 1.0 1.0

# Half intensity: output = input * 0.5
0.0 0.0 0.0
0.05 0.05 0.05
0.1 0.1 0.1
0.15 0.15 0.15
0.2 0.2 0.2
0.25 0.25 0.25
0.3 0.3 0.3
0.35 0.35 0.35
0.4 0.4 0.4
0.45 0.45 0.45
0.5 0.5 0.5