testdata/cgats17_21step_rich_colormuse.ti3
CTI3
DESCRIPTOR "21-step wedge rich (Color Muse Lab + CMYK + spectrum)"
ORIGINATOR "Color Muse Import"
CREATED "2025-09-20"
INSTRUMENT_TYPE "i1Pro2 (synthetic)"
ILLUMINANT "D50"
OBSERVER "2"
SPECTRAL_BANDS 36
SPECTRAL_START_NM 380
SPECTRAL_END_NM 730
NUMBER_OF_FIELDS 44
BEGIN_DATA_FORMAT
SAMPLE_ID CMYK_C CMYK_M CMYK_Y CMYK_K LAB_L LAB_A LAB_B SPEC_380 SPEC_390 SPEC_400 SPEC_410 SPEC_420 SPEC_430 SPEC_440 SPEC_450 SPEC_460 SPEC_470 SPEC_480 SPEC_490 SPEC_500 SPEC_510 SPEC_520 SPEC_530 SPEC_540 SPEC_550 SPEC_560 SPEC_570 SPEC_580 SPEC_590 SPEC_600 SPEC_610 SPEC_620 SPEC_630 SPEC_640 SPEC_650 SPEC_660 SPEC_670 SPEC_680 SPEC_690 SPEC_700 SPEC_710 SPEC_720 SPEC_730
END_DATA_FORMAT
NUMBER_OF_SETS 21
BEGIN_DATA
1 2.0 2.0 2.0 0.0 97.1500 0.0000 0.0000 0.9001 0.9002 0.9004 0.9007 0.9012 0.9021 0.9034 0.9053 0.9079 0.9114 0.9159 0.9211 0.9270 0.9331 0.9389 0.9440 0.9478 0.9497 0.9497 0.9478 0.9440 0.9389 0.9331 0.9270 0.9211 0.9159 0.9114 0.9079 0.9053 0.9034 0.9021 0.9012 0.9007 0.9004 0.9002 0.9001
2 2.0 2.0 2.0 5.0 97.1400 0.0000 0.0000 0.8507 0.8508 0.8510 0.8513 0.8518 0.8526 0.8538 0.8556 0.8581 0.8614 0.8656 0.8706 0.8761 0.8819 0.8874 0.8922 0.8958 0.8976 0.8976 0.8958 0.8922 0.8874 0.8819 0.8761 0.8706 0.8656 0.8614 0.8581 0.8556 0.8538 0.8526 0.8518 0.8513 0.8510 0.8508 0.8507
3 2.0 2.0 2.0 10.0 95.9000 0.0000 0.0000 0.8016 0.8017 0.8018 0.8021 0.8026 0.8033 0.8045 0.8062 0.8086 0.8117 0.8156 0.8203 0.8255 0.8310 0.8362 0.8407 0.8440 0.8458 0.8458 0.8440 0.8407 0.8362 0.8310 0.8255 0.8203 0.8156 0.8117 0.8086 0.8062 0.8045 0.8033 0.8026 0.8021 0.8018 0.8017 0.8016
4 2.0 2.0 2.0 15.0 93.3000 0.0000 0.0000 0.7527 0.7528 0.7530 0.7532 0.7537 0.7544 0.7555 0.7571 0.7593 0.7622 0.7659 0.7703 0.7752 0.7803 0.7852 0.7895 0.7926 0.7943 0.7943 0.7926 0.7895 0.7852 0.7803 0.7752 0.7703 0.7659 0.7622 0.7593 0.7571 0.7555 0.7544 0.7537 0.7532 0.7530 0.7528 0.7527
5 2.0 2.0 2.0 20.0 90.0600 0.0000 0.0000 0.7042 0.7043 0.7044 0.7046 0.7051 0.7057 0.7067 0.7082 0.7103 0.7131 0.7165 0.7206 0.7252 0.7300 0.7346 0.7385 0.7415 0.7430 0.7430 0.7415 0.7385 0.7346 0.7300 0.7252 0.7206 0.7165 0.7131 0.7103 0.7082 0.7067 0.7057 0.7051 0.7046 0.7044 0.7043 0.7042
6 2.0 2.0 2.0 25.0 85.8900 0.0000 0.0000 0.6559 0.6560 0.6561 0.6564 0.6567 0.6574 0.6583 0.6597 0.6616 0.6642 0.6674 0.6712 0.6755 0.6800 0.6842 0.6879 0.6907 0.6921 0.6921 0.6907 0.6879 0.6842 0.6800 0.6755 0.6712 0.6674 0.6642 0.6616 0.6597 0.6583 0.6574 0.6567 0.6564 0.6561 0.6560 0.6559
7 2.0 2.0 2.0 30.0 79.2200 0.0000 0.0000 0.6080 0.6081 0.6082 0.6084 0.6087 0.6093 0.6102 0.6115 0.6133 0.6157 0.6186 0.6222 0.6261 0.6303 0.6342 0.6377 0.6402 0.6415 0.6415 0.6402 0.6377 0.6342 0.6303 0.6261 0.6222 0.6186 0.6157 0.6133 0.6115 0.6102 0.6093 0.6087 0.6084 0.6082 0.6081 0.6080
8 2.0 2.0 2.0 35.0 71.6500 0.0000 0.0000 0.5604 0.5605 0.5606 0.5608 0.5611 0.5616 0.5624 0.5636 0.5653 0.5675 0.5702 0.5735 0.5771 0.5809 0.5846 0.5877 0.5901 0.5913 0.5913 0.5901 0.5877 0.5846 0.5809 0.5771 0.5735 0.5702 0.5675 0.5653 0.5636 0.5624 0.5616 0.5611 0.5608 0.5606 0.5605 0.5604
9 2.0 2.0 2.0 40.0 64.4300 0.0000 0.0000 0.5132 0.5132 0.5133 0.5135 0.5138 0.5143 0.5150 0.5161 0.5176 0.5196 0.5222 0.5251 0.5285 0.5320 0.5353 0.5382 0.5403 0.5415 0.5415 0.5403 0.5382 0.5353 0.5320 0.5285 0.5251 0.5222 0.5196 0.5176 0.5161 0.5150 0.5143 0.5138 0.5135 0.5133 0.5132 0.5132
10 2.0 2.0 2.0 45.0 58.2100 0.0000 0.0000 0.4663 0.4664 0.4665 0.4666 0.4669 0.4673 0.4680 0.4690 0.4704 0.4722 0.4745 0.4772 0.4802 0.4834 0.4864 0.4891 0.4910 0.4920 0.4920 0.4910 0.4891 0.4864 0.4834 0.4802 0.4772 0.4745 0.4722 0.4704 0.4690 0.4680 0.4673 0.4669 0.4666 0.4665 0.4664 0.4663
11 2.0 2.0 2.0 50.0 52.1300 0.0000 0.0000 0.4199 0.4200 0.4200 0.4202 0.4204 0.4208 0.4214 0.4223 0.4236 0.4252 0.4273 0.4297 0.4324 0.4353 0.4380 0.4404 0.4421 0.4431 0.4431 0.4421 0.4404 0.4380 0.4353 0.4324 0.4297 0.4273 0.4252 0.4236 0.4223 0.4214 0.4208 0.4204 0.4202 0.4200 0.4200 0.4199
12 2.0 2.0 2.0 55.0 46.6300 0.0000 0.0000 0.3740 0.3740 0.3741 0.3742 0.3744 0.3748 0.3753 0.3761 0.3772 0.3787 0.3805 0.3827 0.3851 0.3877 0.3901 0.3922 0.3938 0.3946 0.3946 0.3938 0.3922 0.3901 0.3877 0.3851 0.3827 0.3805 0.3787 0.3772 0.3761 0.3753 0.3748 0.3744 0.3742 0.3741 0.3740 0.3740
13 2.0 2.0 2.0 60.0 41.8300 0.0000 0.0000 0.3285 0.3286 0.3286 0.3287 0.3289 0.3292 0.3297 0.3304 0.3314 0.3327 0.3343 0.3362 0.3383 0.3406 0.3427 0.3445 0.3459 0.3466 0.3466 0.3459 0.3445 0.3427 0.3406 0.3383 0.3362 0.3343 0.3327 0.3314 0.3304 0.3297 0.3292 0.3289 0.3287 0.3286 0.3286 0.3285
14 2.0 2.0 2.0 65.0 38.5000 0.0000 0.0000 0.2836 0.2837 0.2837 0.2838 0.2840 0.2843 0.2847 0.2853 0.2861 0.2872 0.2886 0.2903 0.2921 0.2940 0.2959 0.2975 0.2987 0.2993 0.2993 0.2987 0.2975 0.2959 0.2940 0.2921 0.2903 0.2886 0.2872 0.2861 0.2853 0.2847 0.2843 0.2840 0.2838 0.2837 0.2837 0.2836
15 2.0 2.0 2.0 70.0 35.6300 0.0000 0.0000 0.2394 0.2394 0.2395 0.2396 0.2397 0.2399 0.2403 0.2408 0.2415 0.2424 0.2436 0.2450 0.2465 0.2482 0.2497 0.2511 0.2521 0.2526 0.2526 0.2521 0.2511 0.2497 0.2482 0.2465 0.2450 0.2436 0.2424 0.2415 0.2408 0.2403 0.2399 0.2397 0.2396 0.2395 0.2394 0.2394
16 2.0 2.0 2.0 75.0 31.5300 0.0000 0.0000 0.1959 0.1959 0.1960 0.1960 0.1961 0.1963 0.1966 0.1970 0.1976 0.1984 0.1993 0.2005 0.2017 0.2031 0.2043 0.2055 0.2063 0.2067 0.2067 0.2063 0.2055 0.2043 0.2031 0.2017 0.2005 0.1993 0.1984 0.1976 0.1970 0.1966 0.1963 0.1961 0.1960 0.1960 0.1959 0.1959
17 2.0 2.0 2.0 80.0 29.9400 0.0000 0.0000 0.1533 0.1533 0.1533 0.1534 0.1534 0.1536 0.1538 0.1541 0.1546 0.1552 0.1559 0.1568 0.1578 0.1589 0.1599 0.1607 0.1614 0.1617 0.1617 0.1614 0.1607 0.1599 0.1589 0.1578 0.1568 0.1559 0.1552 0.1546 0.1541 0.1538 0.1536 0.1534 0.1534 0.1533 0.1533 0.1533
18 2.0 2.0 2.0 85.0 27.3400 0.0000 0.0000 0.1117 0.1117 0.1117 0.1118 0.1118 0.1119 0.1121 0.1123 0.1127 0.1131 0.1136 0.1143 0.1150 0.1158 0.1165 0.1171 0.1176 0.1178 0.1178 0.1176 0.1171 0.1165 0.1158 0.1150 0.1143 0.1136 0.1131 0.1127 0.1123 0.1121 0.1119 0.1118 0.1118 0.1117 0.1117 0.1117
19 2.0 2.0 2.0 90.0 25.9100 0.0000 0.0000 0.0715 0.0715 0.0715 0.0715 0.0716 0.0717 0.0718 0.0719 0.0721 0.0724 0.0727 0.0732 0.0736 0.0741 0.0746 0.0750 0.0753 0.0754 0.0754 0.0753 0.0750 0.0746 0.0741 0.0736 0.0732 0.0727 0.0724 0.0721 0.0719 0.0718 0.0717 0.0716 0.0715 0.0715 0.0715 0.0715
20 2.0 2.0 2.0 95.0 24.1700 0.0000 0.0000 0.0334 0.0334 0.0334 0.0334 0.0334 0.0334 0.0335 0.0335 0.0336 0.0338 0.0339 0.0341 0.0344 0.0346 0.0348 0.0350 0.0351 0.0352 0.0352 0.0351 0.0350 0.0348 0.0346 0.0344 0.0341 0.0339 0.0338 0.0336 0.0335 0.0335 0.0334 0.0334 0.0334 0.0334 0.0334 0.0334
21 0.0 0.0 0.0 100.0 21.3300 0.0000 0.0000 0.0000 0.0000 0.0000 0.0000 0.0000 0.0000 0.0000 0.0000 0.0000 0.0000 0.0000 0.0000 0.0000 0.0000 0.0000 0.0000 0.0000 0.0000 0.0000 0.0000 0.0000 0.0000 0.0000 0.0000 0.0000 0.0000 0.0000 0.0000 0.0000 0.0000 0.0000 0.0000 0.0000 0.0000 0.0000 0.0000
END_DATA
