testdata/highlight_bump_1d.cube
TITLE "Highlight bump"
LUT_1D_SIZE 17
DOMAIN_MIN 0.0
DOMAIN_MAX 1.0
0.000000
0.050000
0.100000
0.150000
0.200000
0.250000
0.300000
0.360000
0.420000
0.480000
0.540000
0.600000
0.950000
0.700000
0.760000
0.820000
1.000000
