testdata/ImageAdjustment.cube
TITLE "Image Adjustment LUT"
LUT_1D_SIZE 10
DOMAIN_MIN 0.0 0.0 0.0
DOMAIN_MAX 1.0 1.0 1.0
#LUT data points 10
0.004011 0.004011 0.004011
0.039111 0.039111 0.039111
0.070699 0.070699 0.070699
0.096708 0.096708 0.096708
0.120807 0.120807 0.120807
0.137102 0.137102 0.137102
0.972663 0.972663 0.972663
0.983313 0.983313 0.983313
0.992605 0.992605 0.992605
1.000000 1.000000 1.000000
