testdata/midtone_collapse_3d.cube
TITLE "Midtone neutral dip"
LUT_3D_SIZE 3
DOMAIN_MIN 0.0 0.0 0.0
DOMAIN_MAX 1.0 1.0 1.0
0.000000 0.000000 0.000000
0.000000 0.000000 0.500000
0.000000 0.000000 1.000000
0.000000 0.500000 0.000000
0.000000 0.500000 0.500000
0.000000 0.500000 1.000000
0.000000 1.000000 0.000000
0.000000 1.000000 0.500000
0.000000 1.000000 1.000000
0.500000 0.000000 0.000000
0.500000 0.000000 0.500000
0.500000 0.000000 1.000000
0.500000 0.500000 0.000000
0.200000 0.200000 0.200000
0.500000 0.500000 1.000000
0.500000 1.000000 0.000000
0.500000 1.000000 0.500000
0.500000 1.000000 1.000000
1.000000 0.000000 0.000000
1.000000 0.000000 0.500000
1.000000 0.000000 1.000000
1.000000 0.500000 0.000000
1.000000 0.500000 0.500000
1.000000 0.500000 1.000000
1.000000 1.000000 0.000000
1.000000 1.000000 0.500000
1.000000 1.000000 1.000000
