testdata/NegativeDensityRangeCorrection.cube
TITLE "Negative Density Range Correction LUT"
LUT_1D_SIZE 2
DOMAIN_MIN 0.0 0.0 0.0
DOMAIN_MAX 1.0 1.0 1.0
#LUT data points 2
0.454643 0.454643 0.454643
1.000000 1.000000 1.000000