testdata/POPS_i1pro2.cgats
CGATS.17																																																			
																																																			
ORIGINATOR	i1Profiler - X-Rite, Inc.																																																		
INSTRUMENTATION	i1Pro 2 ; Serial number 1046367																																																		
DESCRIPTOR	Toyobo-PM73-validation																																																		
MEASUREMENT_SOURCE	MeasurementCondition=M0 Filter=no																																																		
ILLUMINATION_NAME	D50																																																		
OBSERVER_ANGLE	2																																																		
FILTER	no																																																		
WEIGHTING_FUNCTION	ILLUMINANT, D50																																																		
WEIGHTING_FUNCTION	OBSERVER, 2 degree																																																		
KEYWORD	DEVCALSTD																																																		
DEVCALSTD	XRGA																																																		
CREATED		2025-08-04 13:01:31																																																	
																																																			
NUMBER_OF_FIELDS	52																																																		
BEGIN_DATA_FORMAT																																																			
SAMPLE_ID	SAMPLE_NAME	RGB_R	RGB_G	RGB_B	XYZ_X	XYZ_Y	XYZ_Z	XYY_X	XYY_Y	XYY_CAPY	LAB_L	LAB_A	LAB_B	LAB_C	LAB_H	SPECTRAL_NM380	SPECTRAL_NM390	SPECTRAL_NM400	SPECTRAL_NM410	SPECTRAL_NM420	SPECTRAL_NM430	SPECTRAL_NM440	SPECTRAL_NM450	SPECTRAL_NM460	SPECTRAL_NM470	SPECTRAL_NM480	SPECTRAL_NM490	SPECTRAL_NM500	SPECTRAL_NM510	SPECTRAL_NM520	SPECTRAL_NM530	SPECTRAL_NM540	SPECTRAL_NM550	SPECTRAL_NM560	SPECTRAL_NM570	SPECTRAL_NM580	SPECTRAL_NM590	SPECTRAL_NM600	SPECTRAL_NM610	SPECTRAL_NM620	SPECTRAL_NM630	SPECTRAL_NM640	SPECTRAL_NM650	SPECTRAL_NM660	SPECTRAL_NM670	SPECTRAL_NM680	SPECTRAL_NM690	SPECTRAL_NM700	SPECTRAL_NM710	SPECTRAL_NM720	SPECTRAL_NM730
END_DATA_FORMAT																																																			
																																																			
NUMBER_OF_SETS	800																																																		
BEGIN_DATA																																																			
1	A1	255	255	255	0.82164	0.8489	0.67474	0.35034	0.36196	0.8489	93.84	0.6	2.35	2.43	75.69	0.5743	0.6222	0.6681	0.7304	0.7855	0.806	0.8145	0.8185	0.823	0.8257	0.828	0.8304	0.8331	0.8355	0.8386	0.8404	0.844	0.847	0.8476	0.8527	0.8542	0.8572	0.8595	0.8618	0.8634	0.8648	0.8686	0.8724	0.8754	0.8774	0.878	0.8785	0.8809	0.8839	0.8852	0.889
2	B1	251	251	251	0.7864	0.81182	0.64424	0.35069	0.36202	0.81182	92.21	0.72	2.42	2.52	73.41	0.552	0.592	0.638	0.6968	0.7475	0.7679	0.7767	0.7809	0.7865	0.7893	0.7918	0.7945	0.7972	0.7992	0.8013	0.8026	0.8061	0.8091	0.8092	0.8145	0.8171	0.8208	0.8237	0.826	0.8274	0.829	0.8336	0.838	0.8417	0.8442	0.8457	0.846	0.849	0.8518	0.8542	0.859
3	C1	248	248	248	0.79209	0.81783	0.64951	0.35057	0.36197	0.81783	92.48	0.69	2.37	2.47	73.71	0.5515	0.5987	0.6438	0.7027	0.7543	0.7752	0.7835	0.7874	0.7924	0.7951	0.7979	0.801	0.8035	0.8053	0.8073	0.8084	0.8121	0.8152	0.8159	0.8209	0.8231	0.8266	0.8291	0.8313	0.833	0.8351	0.8391	0.8433	0.8467	0.8494	0.8508	0.8507	0.8535	0.8562	0.8586	0.8633
4	D1	245	245	245	0.78721	0.81286	0.64534	0.35059	0.36201	0.81286	92.26	0.68	2.39	2.49	74.1	0.5494	0.5959	0.6412	0.6992	0.7502	0.7697	0.7781	0.7829	0.7873	0.7903	0.7924	0.7953	0.7979	0.8	0.8026	0.8041	0.8076	0.8102	0.8107	0.8158	0.8182	0.8217	0.8242	0.8265	0.8277	0.8295	0.8337	0.8378	0.841	0.8435	0.8448	0.8451	0.8473	0.8503	0.8523	0.8571
5	E1	242	242	242	0.76798	0.79312	0.6298	0.35053	0.362	0.79312	91.38	0.65	2.36	2.45	74.52	0.537	0.5819	0.6244	0.6819	0.7303	0.7509	0.7595	0.7638	0.7682	0.7718	0.774	0.7765	0.7791	0.781	0.7831	0.7845	0.788	0.7905	0.7911	0.796	0.7982	0.8015	0.804	0.8062	0.8074	0.8092	0.8132	0.8172	0.8206	0.8227	0.8237	0.8238	0.8262	0.8287	0.8308	0.8352
6	F1	238	238	238	0.77009	0.79502	0.63085	0.35069	0.36204	0.79502	91.46	0.71	2.4	2.51	73.61	0.5398	0.5847	0.6284	0.685	0.7328	0.7527	0.7608	0.7651	0.7692	0.7722	0.7751	0.7778	0.7809	0.7825	0.7843	0.7859	0.7895	0.7923	0.793	0.7981	0.8003	0.8036	0.8062	0.8085	0.8102	0.8122	0.8164	0.8204	0.8236	0.8264	0.8274	0.8278	0.8302	0.8333	0.8358	0.8408
7	G1	235	235	235	0.76519	0.78997	0.62609	0.3508	0.36216	0.78997	91.23	0.7	2.47	2.57	74.09	0.533	0.5777	0.6203	0.6788	0.7269	0.7467	0.7546	0.7589	0.7638	0.7671	0.7692	0.7724	0.7748	0.7772	0.7793	0.7809	0.7844	0.7873	0.7881	0.7931	0.7952	0.7989	0.8014	0.8037	0.8053	0.807	0.8111	0.8153	0.8186	0.8212	0.8226	0.8224	0.8252	0.8283	0.8309	0.8352
8	H1	232	232	232	0.77352	0.79892	0.63417	0.35055	0.36206	0.79892	91.64	0.64	2.39	2.47	75.03	0.5386	0.5873	0.6311	0.6886	0.7361	0.7556	0.7647	0.7697	0.7736	0.7764	0.7789	0.7819	0.7848	0.7868	0.7886	0.79	0.7935	0.7966	0.7975	0.8023	0.8043	0.8072	0.8095	0.8117	0.8132	0.815	0.8191	0.823	0.8259	0.8287	0.8293	0.8292	0.832	0.8349	0.8369	0.8408
9	I1	229	229	229	0.7653	0.7899	0.62504	0.35102	0.3623	0.7899	91.23	0.74	2.57	2.67	73.94	0.5328	0.5788	0.6211	0.678	0.725	0.7447	0.7539	0.7582	0.7623	0.7649	0.7682	0.7715	0.7742	0.7766	0.7784	0.78	0.7841	0.7872	0.7883	0.7935	0.7958	0.7991	0.8019	0.8039	0.8058	0.8074	0.8117	0.8159	0.8193	0.8221	0.8231	0.8238	0.8262	0.8296	0.8321	0.8363
10	J1	225	225	225	0.75434	0.77879	0.61771	0.35072	0.36209	0.77879	90.72	0.7	2.41	2.51	73.92	0.5276	0.5746	0.6182	0.6719	0.718	0.7364	0.7451	0.7491	0.7529	0.7565	0.7587	0.7618	0.7646	0.7669	0.7685	0.7698	0.7733	0.7761	0.7769	0.7818	0.784	0.7873	0.7898	0.7919	0.7934	0.7954	0.7998	0.8039	0.8074	0.81	0.811	0.8111	0.814	0.8169	0.819	0.8238
11	K1	222	222	222	0.72604	0.749	0.59098	0.35142	0.36253	0.749	89.35	0.8	2.69	2.81	73.39	0.5061	0.5494	0.589	0.6406	0.6843	0.7033	0.7118	0.7164	0.721	0.7241	0.727	0.7304	0.7336	0.7357	0.7374	0.7391	0.7429	0.746	0.7471	0.7521	0.7548	0.7583	0.761	0.7635	0.7654	0.7675	0.7721	0.7765	0.78	0.7832	0.7845	0.7849	0.788	0.7917	0.7945	0.7993
12	L1	219	219	219	0.71068	0.73292	0.57665	0.35178	0.36279	0.73292	88.59	0.85	2.84	2.97	73.43	0.4986	0.5348	0.574	0.6235	0.6682	0.6857	0.6942	0.6987	0.7031	0.7067	0.7101	0.7137	0.7171	0.719	0.7214	0.7228	0.7265	0.7298	0.7308	0.7359	0.739	0.7427	0.7453	0.7479	0.7498	0.7523	0.757	0.7616	0.7655	0.7688	0.7699	0.7707	0.7739	0.7773	0.7807	0.7856
13	M1	216	216	216	0.70245	0.72456	0.5719	0.35142	0.36248	0.72456	88.19	0.82	2.64	2.77	72.86	0.4904	0.5287	0.5676	0.6201	0.6625	0.6804	0.689	0.6931	0.6977	0.7007	0.7036	0.707	0.7098	0.7117	0.7135	0.7148	0.7184	0.7215	0.7225	0.7274	0.7302	0.7339	0.7364	0.7388	0.7403	0.7426	0.747	0.7514	0.7551	0.7583	0.7595	0.7598	0.7628	0.7664	0.7695	0.7739
14	N1	213	213	213	0.68526	0.70641	0.55626	0.35179	0.36265	0.70641	87.31	0.9	2.76	2.9	71.99	0.4787	0.518	0.5553	0.6048	0.6442	0.6614	0.6695	0.6741	0.6785	0.6815	0.6849	0.6887	0.6917	0.6931	0.6948	0.6961	0.6997	0.7032	0.7043	0.7093	0.7121	0.7158	0.719	0.7212	0.7232	0.7258	0.7302	0.735	0.7389	0.7421	0.7432	0.7439	0.7467	0.7508	0.7541	0.7587
15	O1	209	209	209	0.67373	0.69408	0.5449	0.35224	0.36288	0.69408	86.71	0.99	2.92	3.08	71.31	0.474	0.505	0.5423	0.5913	0.6307	0.6475	0.655	0.6599	0.6651	0.6685	0.671	0.6745	0.6776	0.6798	0.682	0.6834	0.6872	0.6905	0.6917	0.6968	0.7001	0.7043	0.7074	0.7099	0.712	0.7146	0.7193	0.7243	0.7287	0.732	0.7333	0.7342	0.7375	0.7408	0.7444	0.7491
16	P1	206	206	206	0.64812	0.66757	0.52491	0.35212	0.36269	0.66757	85.38	1	2.79	2.97	70.28	0.4447	0.4859	0.5227	0.5682	0.6065	0.623	0.6313	0.636	0.6406	0.6441	0.647	0.6502	0.653	0.6545	0.6557	0.6568	0.6606	0.664	0.6651	0.67	0.6733	0.6773	0.6805	0.683	0.6848	0.6873	0.6921	0.697	0.7011	0.7045	0.7058	0.7066	0.7096	0.7136	0.7173	0.7222
17	Q1	203	203	203	0.62189	0.64026	0.50306	0.3523	0.36271	0.64026	83.98	1.05	2.8	2.99	69.36	0.4347	0.4693	0.5024	0.5455	0.5811	0.597	0.6051	0.6097	0.6139	0.6167	0.62	0.6235	0.6262	0.6277	0.6284	0.6293	0.6331	0.6365	0.6377	0.6428	0.646	0.6498	0.653	0.6557	0.6574	0.66	0.6649	0.6699	0.6742	0.6779	0.6792	0.6801	0.683	0.6868	0.6905	0.6957
18	R1	200	200	200	0.59703	0.61444	0.48233	0.35248	0.36276	0.61444	82.62	1.09	2.81	3.01	68.76	0.4136	0.4499	0.4826	0.522	0.5571	0.5725	0.5796	0.5841	0.5888	0.5916	0.595	0.5984	0.6006	0.602	0.6026	0.6036	0.6072	0.6107	0.6119	0.6167	0.62	0.6241	0.6271	0.6296	0.6315	0.634	0.6391	0.6443	0.6486	0.6519	0.6536	0.6544	0.6572	0.6608	0.664	0.6696
19	S1	196	196	196	0.59512	0.61219	0.4794	0.35283	0.36295	0.61219	82.5	1.15	2.94	3.16	68.56	0.4093	0.4463	0.4811	0.5211	0.5528	0.5682	0.5766	0.5809	0.5848	0.5878	0.5911	0.5951	0.5976	0.599	0.5996	0.6006	0.6048	0.6083	0.6097	0.6149	0.6183	0.6223	0.6254	0.6278	0.6298	0.633	0.6382	0.6432	0.6476	0.6511	0.6526	0.6536	0.6561	0.6598	0.6639	0.6689
20	T1	193	193	193	0.55425	0.57007	0.44685	0.35276	0.36283	0.57007	80.18	1.15	2.82	3.04	67.83	0.3824	0.4171	0.4475	0.4837	0.5146	0.5301	0.5369	0.5408	0.5456	0.5487	0.5517	0.5545	0.5568	0.5581	0.5585	0.5594	0.563	0.5663	0.5675	0.5719	0.5754	0.5794	0.5824	0.5849	0.5869	0.5894	0.5942	0.5996	0.604	0.6075	0.6091	0.6101	0.6127	0.6161	0.6193	0.6251
21	U1	190	190	190	0.53222	0.54682	0.42653	0.3535	0.3632	0.54682	78.86	1.28	3.04	3.3	67.17	0.3663	0.3941	0.426	0.4618	0.4911	0.5044	0.5125	0.5165	0.5208	0.5233	0.5267	0.5303	0.5329	0.5342	0.5345	0.5352	0.5392	0.5428	0.5443	0.5491	0.5526	0.5569	0.5597	0.5623	0.5647	0.5679	0.5729	0.5778	0.5826	0.5864	0.5882	0.5896	0.5924	0.5961	0.6001	0.6062
22	V1	187	187	187	0.49938	0.5129	0.40038	0.3535	0.36307	0.5129	76.85	1.3	2.94	3.21	66.14	0.341	0.3758	0.4024	0.4345	0.4609	0.4736	0.4807	0.4851	0.4886	0.4914	0.4946	0.4977	0.5002	0.501	0.5013	0.5021	0.5055	0.5088	0.5102	0.5147	0.5183	0.5223	0.5254	0.5278	0.5298	0.5327	0.538	0.5432	0.5475	0.5512	0.5531	0.5543	0.5571	0.5603	0.5646	0.5706
23	W1	183	183	183	0.4805	0.49344	0.3851	0.35356	0.36308	0.49344	75.66	1.3	2.91	3.19	65.89	0.3334	0.3594	0.3855	0.4181	0.4439	0.4553	0.4624	0.4663	0.4702	0.4727	0.4755	0.4788	0.4814	0.4824	0.4822	0.4827	0.4861	0.4894	0.4907	0.4952	0.4986	0.5026	0.5054	0.508	0.51	0.5127	0.5177	0.523	0.5274	0.5313	0.533	0.5343	0.5367	0.5404	0.5445	0.5497
24	X1	180	180	180	0.48499	0.49794	0.38822	0.35371	0.36316	0.49794	75.94	1.33	2.97	3.26	65.84	0.3312	0.3625	0.3894	0.4211	0.4458	0.4591	0.466	0.4702	0.4736	0.4771	0.4797	0.4831	0.4855	0.4862	0.4865	0.4869	0.4904	0.4938	0.4952	0.4996	0.5032	0.5074	0.5104	0.513	0.5151	0.5178	0.5227	0.5281	0.533	0.5361	0.5383	0.5394	0.5427	0.5461	0.5497	0.5553
25	Y1	177	177	177	0.44911	0.46094	0.35927	0.35382	0.36314	0.46094	73.61	1.34	2.91	3.21	65.22	0.3089	0.3362	0.3606	0.3886	0.4115	0.4246	0.4315	0.4351	0.4385	0.4412	0.4442	0.4474	0.4497	0.4502	0.45	0.4504	0.4538	0.4569	0.4583	0.4623	0.4658	0.4699	0.4728	0.475	0.4771	0.4798	0.4846	0.4898	0.4943	0.4982	0.4999	0.5009	0.5035	0.5069	0.5108	0.516
26	Z1	174	174	174	0.41197	0.42249	0.32849	0.35424	0.36329	0.42249	71.04	1.4	2.95	3.27	64.53	0.2875	0.311	0.3319	0.3572	0.3769	0.3877	0.3937	0.3976	0.4012	0.4034	0.4065	0.4095	0.4116	0.4123	0.4121	0.4122	0.4155	0.4185	0.4198	0.4236	0.427	0.4311	0.4342	0.4363	0.4382	0.4409	0.4456	0.4508	0.4554	0.459	0.4607	0.4618	0.4645	0.4673	0.4714	0.4774
27	[1	171	171	171	0.4036	0.41407	0.32355	0.35366	0.36283	0.41407	70.46	1.35	2.69	3.01	63.32	0.2759	0.3041	0.3282	0.3519	0.3721	0.3823	0.389	0.3917	0.3947	0.3972	0.3999	0.4027	0.4044	0.4047	0.4044	0.4042	0.4073	0.4104	0.4115	0.415	0.4183	0.4221	0.425	0.4268	0.4286	0.4311	0.4355	0.4404	0.4451	0.4481	0.4501	0.4508	0.4528	0.4553	0.459	0.4638
28	\1	167	167	167	0.38424	0.39395	0.30684	0.35413	0.36308	0.39395	69.04	1.41	2.8	3.13	63.31	0.2636	0.2888	0.31	0.3343	0.3518	0.3618	0.3682	0.3715	0.3743	0.3772	0.3798	0.3826	0.3844	0.3847	0.3844	0.3841	0.3872	0.3901	0.3911	0.3948	0.3982	0.4019	0.4048	0.407	0.4086	0.4111	0.4157	0.4209	0.4254	0.4287	0.4305	0.4315	0.4338	0.4367	0.4403	0.4456
29	]1	164	164	164	0.33875	0.34696	0.26983	0.35451	0.36311	0.34696	65.51	1.46	2.75	3.12	61.98	0.2321	0.2562	0.2739	0.2933	0.309	0.3183	0.3235	0.3264	0.3295	0.3319	0.3342	0.3367	0.3381	0.3384	0.3379	0.3379	0.3407	0.3433	0.3442	0.3477	0.3508	0.3546	0.3571	0.359	0.3604	0.3631	0.3677	0.3725	0.3768	0.3801	0.3817	0.3824	0.3843	0.387	0.3907	0.3956
30	^1	161	161	161	0.3073	0.31443	0.24453	0.35475	0.36297	0.31443	62.88	1.54	2.66	3.07	60.02	0.2051	0.2324	0.2493	0.2673	0.2804	0.2878	0.2925	0.2956	0.2992	0.3011	0.303	0.3051	0.3066	0.3066	0.3058	0.3057	0.3084	0.3107	0.3116	0.3149	0.3179	0.3216	0.3241	0.326	0.3277	0.33	0.3341	0.3387	0.3427	0.3462	0.3475	0.3483	0.3506	0.3531	0.3569	0.3616
31	_1	158	158	158	0.27258	0.2785	0.21573	0.35547	0.36319	0.2785	59.75	1.63	2.73	3.18	59.1	0.1873	0.2058	0.2201	0.2367	0.2469	0.2539	0.2583	0.2607	0.2635	0.2658	0.2673	0.2695	0.2707	0.2709	0.2703	0.2702	0.2726	0.2749	0.2759	0.2787	0.2818	0.2856	0.2877	0.2895	0.2911	0.2936	0.2977	0.302	0.3064	0.3095	0.3109	0.3121	0.3138	0.3165	0.3203	0.3248
32	A2	154	154	154	0.42854	0.43986	0.3431	0.35372	0.36307	0.43986	72.22	1.32	2.83	3.12	65.06	0.3022	0.3261	0.3464	0.3724	0.3963	0.4059	0.4111	0.4149	0.4192	0.4217	0.4242	0.4264	0.4285	0.4294	0.4299	0.4304	0.4334	0.4362	0.4369	0.4407	0.4442	0.4486	0.4513	0.4533	0.455	0.4575	0.4622	0.4671	0.4719	0.4751	0.4769	0.4781	0.4802	0.4835	0.4874	0.4924
33	B2	151	151	151	0.37277	0.38265	0.29987	0.35324	0.3626	0.38265	68.22	1.24	2.48	2.77	63.36	0.2626	0.2846	0.3046	0.3255	0.3456	0.3545	0.3591	0.3628	0.3667	0.3687	0.371	0.3728	0.3743	0.3745	0.3748	0.3747	0.377	0.3792	0.3796	0.3826	0.3859	0.3899	0.3924	0.394	0.3956	0.3976	0.4018	0.4065	0.4109	0.4139	0.4155	0.416	0.4182	0.4204	0.4235	0.4291
34	C2	148	148	148	0.37856	0.3886	0.30473	0.35317	0.36254	0.3886	68.65	1.25	2.46	2.76	63.05	0.2645	0.2891	0.3092	0.3317	0.3517	0.3606	0.365	0.3686	0.3724	0.3746	0.377	0.3787	0.3802	0.3805	0.3803	0.3803	0.3827	0.3851	0.3857	0.389	0.392	0.3958	0.3984	0.4001	0.4016	0.4037	0.4077	0.4126	0.4168	0.4196	0.4214	0.422	0.4238	0.426	0.4293	0.4346
35	D2	145	145	145	0.36459	0.37426	0.29343	0.35319	0.36255	0.37426	67.6	1.24	2.44	2.73	63.12	0.2578	0.2794	0.298	0.3185	0.338	0.3466	0.3515	0.3553	0.3587	0.3609	0.3629	0.3647	0.366	0.3664	0.3663	0.3664	0.3687	0.3709	0.3713	0.3745	0.3776	0.3814	0.3838	0.3852	0.3865	0.3887	0.3928	0.3975	0.4016	0.4044	0.4061	0.4066	0.4079	0.4103	0.4133	0.4187
36	E2	142	142	142	0.32565	0.33391	0.26132	0.35363	0.3626	0.33391	64.48	1.32	2.43	2.77	61.52	0.227	0.2491	0.2656	0.2845	0.3	0.3086	0.3127	0.3159	0.3196	0.3219	0.3235	0.325	0.3262	0.3267	0.3264	0.3264	0.3285	0.3305	0.3309	0.3338	0.337	0.3407	0.3432	0.3446	0.3458	0.348	0.3519	0.3562	0.3604	0.3632	0.3648	0.3655	0.3672	0.3691	0.3725	0.3776
37	F2	138	138	138	0.32758	0.3358	0.26323	0.35353	0.3624	0.3358	64.63	1.35	2.36	2.72	60.19	0.2298	0.2505	0.2681	0.2868	0.3029	0.3113	0.3155	0.3186	0.3216	0.3237	0.3255	0.3272	0.3286	0.3287	0.3279	0.3279	0.3302	0.3323	0.3328	0.3359	0.339	0.3426	0.3452	0.3466	0.3478	0.35	0.3539	0.3584	0.3626	0.3654	0.3666	0.3675	0.3691	0.3713	0.3747	0.3801
38	G2	135	135	135	0.30533	0.31294	0.24468	0.35382	0.36264	0.31294	62.76	1.34	2.42	2.77	61.07	0.2118	0.234	0.2478	0.2663	0.2809	0.2891	0.2932	0.2959	0.2988	0.3012	0.303	0.3047	0.3056	0.3058	0.3055	0.3056	0.3078	0.3098	0.3101	0.313	0.3158	0.3194	0.3218	0.3234	0.3246	0.3265	0.3299	0.3344	0.3384	0.3412	0.3424	0.343	0.3445	0.3469	0.35	0.3545
39	H2	132	132	132	0.29738	0.3048	0.23826	0.35384	0.36267	0.3048	62.07	1.32	2.41	2.75	61.2	0.2026	0.2283	0.2433	0.26	0.2737	0.281	0.2849	0.2883	0.2913	0.2934	0.295	0.2968	0.2979	0.2982	0.2977	0.2974	0.2997	0.3015	0.302	0.3049	0.3077	0.3112	0.3134	0.3148	0.3159	0.318	0.3218	0.326	0.3296	0.3326	0.3335	0.3345	0.3359	0.338	0.3413	0.3459
40	I2	129	129	129	0.29039	0.29734	0.23217	0.35418	0.36265	0.29734	61.42	1.43	2.44	2.82	59.67	0.2041	0.221	0.2378	0.2527	0.2667	0.2733	0.2779	0.2808	0.2839	0.2861	0.2876	0.289	0.2901	0.2904	0.2898	0.2896	0.2919	0.294	0.2946	0.2974	0.3004	0.3039	0.3065	0.3076	0.3089	0.311	0.3148	0.3191	0.3231	0.3256	0.3273	0.3279	0.3292	0.3318	0.3353	0.34
41	J2	125	125	125	0.26827	0.2746	0.21458	0.35417	0.36254	0.2746	59.4	1.42	2.34	2.74	58.75	0.1919	0.2069	0.2214	0.2357	0.247	0.2535	0.2567	0.2594	0.262	0.2642	0.2659	0.2674	0.2683	0.2684	0.2676	0.2674	0.2694	0.2715	0.2717	0.2745	0.2774	0.2808	0.283	0.2842	0.2854	0.2873	0.2911	0.2951	0.2991	0.3018	0.3033	0.3037	0.3052	0.3075	0.3103	0.315
42	K2	122	122	122	0.25007	0.25598	0.19988	0.35424	0.36261	0.25598	57.65	1.39	2.32	2.7	59.1	0.1775	0.1933	0.2054	0.2206	0.2292	0.236	0.239	0.2415	0.2444	0.2462	0.2476	0.249	0.2499	0.2503	0.2495	0.2494	0.2512	0.2529	0.2535	0.2557	0.2586	0.2618	0.2638	0.2652	0.2661	0.2679	0.2712	0.2753	0.2787	0.2812	0.2824	0.2834	0.2845	0.2866	0.2893	0.2935
43	L2	119	119	119	0.23504	0.24049	0.18712	0.3547	0.36292	0.24049	56.14	1.41	2.41	2.79	59.77	0.1668	0.1801	0.1921	0.2041	0.2151	0.2204	0.2238	0.2262	0.2285	0.2305	0.2321	0.2332	0.2346	0.2347	0.2341	0.2342	0.236	0.2376	0.2378	0.2403	0.243	0.2461	0.2482	0.2495	0.2504	0.2521	0.2556	0.2594	0.2627	0.2651	0.2664	0.2673	0.2688	0.2702	0.2734	0.2774
44	M2	116	116	116	0.22236	0.2275	0.17771	0.35432	0.36251	0.2275	54.81	1.39	2.21	2.61	57.94	0.1589	0.1714	0.1824	0.1948	0.2043	0.21	0.2127	0.2146	0.2171	0.2188	0.2203	0.2216	0.2224	0.2224	0.2217	0.2215	0.2232	0.2246	0.225	0.2272	0.2298	0.2327	0.2345	0.2358	0.2367	0.2386	0.2416	0.2451	0.2487	0.2512	0.2522	0.2527	0.2539	0.2557	0.2586	0.2624
45	N2	112	112	112	0.20804	0.21267	0.16612	0.35452	0.36241	0.21267	53.24	1.44	2.17	2.6	56.4	0.1538	0.1632	0.1737	0.1838	0.1917	0.1959	0.1984	0.2005	0.2031	0.2047	0.2058	0.207	0.208	0.2078	0.2069	0.2068	0.2084	0.2099	0.2103	0.2124	0.2147	0.2177	0.2198	0.2208	0.2216	0.2233	0.2264	0.2299	0.2332	0.2358	0.2369	0.2375	0.2385	0.2403	0.243	0.2468
46	O2	109	109	109	0.19263	0.19681	0.15404	0.35444	0.36213	0.19681	51.47	1.46	2.03	2.5	54.41	0.1479	0.1523	0.1617	0.1712	0.178	0.1818	0.184	0.186	0.1884	0.1896	0.1907	0.1918	0.1924	0.1924	0.1918	0.1912	0.1926	0.194	0.1944	0.1964	0.1986	0.2015	0.2034	0.2045	0.2052	0.2067	0.2096	0.213	0.2163	0.2188	0.2197	0.2203	0.2213	0.2231	0.2255	0.2289
47	P2	106	106	106	0.19343	0.19772	0.15503	0.35415	0.362	0.19772	51.58	1.41	1.97	2.42	54.34	0.1386	0.1524	0.1602	0.1704	0.1787	0.1828	0.1853	0.1874	0.1894	0.1909	0.1922	0.1936	0.194	0.1936	0.1924	0.1918	0.1936	0.1952	0.1955	0.1974	0.1996	0.2021	0.204	0.2051	0.206	0.2076	0.2104	0.2136	0.2169	0.219	0.2201	0.2208	0.2212	0.2232	0.2259	0.2292
48	Q2	103	103	103	0.16732	0.17078	0.13394	0.35447	0.3618	0.17078	48.36	1.48	1.87	2.38	51.61	0.1229	0.1334	0.1398	0.1483	0.1542	0.1575	0.1601	0.1623	0.1638	0.1648	0.1657	0.1668	0.1672	0.167	0.1661	0.1657	0.1668	0.1682	0.1685	0.1705	0.1727	0.175	0.1766	0.1775	0.1783	0.1798	0.1825	0.1856	0.1882	0.1904	0.191	0.1918	0.1926	0.1941	0.1963	0.1998
49	R2	100	100	100	0.16637	0.17	0.13362	0.35399	0.36171	0.17	48.26	1.38	1.78	2.25	52.34	0.1199	0.1329	0.1408	0.1468	0.1534	0.1577	0.1598	0.1614	0.1634	0.1648	0.1655	0.1666	0.1667	0.1664	0.1655	0.1652	0.1664	0.1677	0.1678	0.1695	0.1717	0.1741	0.1754	0.1762	0.177	0.1783	0.1812	0.1842	0.1868	0.1887	0.1896	0.1904	0.1912	0.1926	0.1945	0.1978
50	S2	96	96	96	0.15684	0.16001	0.12599	0.35417	0.36132	0.16001	46.98	1.49	1.68	2.25	48.48	0.1164	0.1258	0.1338	0.1425	0.1459	0.1484	0.1514	0.1528	0.1538	0.1544	0.1556	0.1563	0.1563	0.1563	0.1556	0.1554	0.1565	0.1576	0.1578	0.1597	0.1617	0.1641	0.1654	0.1661	0.167	0.1685	0.171	0.1738	0.1765	0.1783	0.1791	0.1796	0.1802	0.1812	0.1836	0.1865
51	T2	93	93	93	0.14189	0.14473	0.11387	0.3543	0.36138	0.14473	44.9	1.46	1.66	2.21	48.57	0.1111	0.117	0.1226	0.127	0.1312	0.1341	0.1363	0.138	0.1393	0.14	0.1408	0.1415	0.1418	0.1414	0.1404	0.14	0.1415	0.1426	0.143	0.1444	0.1462	0.1483	0.1497	0.1503	0.1512	0.1525	0.1546	0.1576	0.16	0.1615	0.1625	0.1631	0.1636	0.165	0.167	0.1695
52	U2	90	90	90	0.13273	0.13535	0.1065	0.35434	0.36133	0.13535	43.56	1.45	1.62	2.17	48.09	0.0992	0.1062	0.1134	0.1184	0.1224	0.1258	0.1278	0.1291	0.1304	0.1305	0.1314	0.1321	0.1325	0.1323	0.1316	0.1312	0.1321	0.1333	0.1335	0.1352	0.1366	0.1387	0.1398	0.1407	0.1415	0.1429	0.1451	0.1474	0.1494	0.1511	0.1518	0.1523	0.153	0.1544	0.1563	0.1593
53	V2	87	87	87	0.12198	0.12424	0.09742	0.35496	0.36154	0.12424	41.88	1.51	1.68	2.26	48.13	0.0914	0.0982	0.1032	0.1084	0.113	0.1148	0.1168	0.1178	0.1189	0.1199	0.1206	0.1212	0.1214	0.121	0.1203	0.1202	0.1212	0.1223	0.1226	0.1239	0.1255	0.1275	0.1287	0.1295	0.1304	0.1315	0.1336	0.1361	0.1382	0.1397	0.1407	0.1412	0.1421	0.1431	0.1449	0.148
54	W2	83	83	83	0.1192	0.1216	0.09578	0.35415	0.36128	0.1216	41.47	1.37	1.53	2.05	48.16	0.0938	0.0973	0.1025	0.1073	0.1107	0.1134	0.1148	0.1157	0.1169	0.1179	0.1183	0.1189	0.1192	0.119	0.1181	0.1179	0.1189	0.1198	0.12	0.1212	0.1228	0.1248	0.1257	0.1264	0.1269	0.128	0.1298	0.1323	0.1342	0.1358	0.1361	0.1368	0.1375	0.1386	0.1403	0.1425
55	X2	80	80	80	0.12252	0.125	0.09799	0.35459	0.36179	0.125	42	1.37	1.7	2.18	51.15	0.0849	0.0983	0.1042	0.1086	0.1127	0.1155	0.1172	0.1186	0.1196	0.1209	0.1215	0.122	0.1224	0.122	0.1214	0.1211	0.1222	0.1232	0.1234	0.1246	0.1264	0.1282	0.1294	0.1301	0.1306	0.1317	0.1337	0.136	0.1381	0.1396	0.1404	0.141	0.142	0.143	0.1445	0.1472
56	Y2	77	77	77	0.10649	0.10849	0.08496	0.35503	0.3617	0.10849	39.32	1.42	1.65	2.18	49.22	0.0795	0.0849	0.091	0.0939	0.0963	0.1003	0.1018	0.1029	0.1041	0.1044	0.1051	0.1058	0.106	0.1057	0.1051	0.1049	0.1059	0.1067	0.1071	0.1082	0.1097	0.1113	0.1125	0.1132	0.1137	0.1148	0.1166	0.1188	0.1205	0.1219	0.123	0.1232	0.1241	0.1246	0.1263	0.1286
57	Z2	74	74	74	0.10484	0.10696	0.08417	0.35423	0.36139	0.10696	39.06	1.3	1.49	1.98	48.82	0.0813	0.088	0.0916	0.0944	0.097	0.0993	0.1008	0.102	0.1026	0.1035	0.1041	0.1049	0.1049	0.1044	0.1039	0.1037	0.1044	0.1055	0.1056	0.1066	0.1081	0.1098	0.1105	0.1111	0.1116	0.1126	0.1143	0.1162	0.1182	0.1193	0.1198	0.1204	0.1212	0.1219	0.1234	0.1257
58	[2	71	71	71	0.09415	0.09599	0.07523	0.35479	0.36172	0.09599	37.11	1.31	1.56	2.04	50.05	0.0603	0.0749	0.0812	0.0843	0.0867	0.0886	0.0903	0.0908	0.0916	0.0925	0.0933	0.0941	0.0944	0.0939	0.0932	0.0929	0.0936	0.0944	0.0946	0.0956	0.097	0.0984	0.0994	0.0999	0.1005	0.1016	0.1031	0.105	0.1069	0.1078	0.1083	0.1087	0.1092	0.1101	0.1115	0.1131
59	\2	67	67	67	0.09423	0.09605	0.07559	0.35443	0.36127	0.09605	37.12	1.33	1.44	1.96	47.34	0.0653	0.0777	0.0818	0.0841	0.0873	0.089	0.0907	0.0912	0.0921	0.0932	0.0938	0.0943	0.0942	0.0937	0.0932	0.0929	0.0937	0.0946	0.0947	0.0958	0.0972	0.0984	0.0994	0.1	0.1004	0.1014	0.103	0.1048	0.1067	0.1079	0.1083	0.1089	0.1094	0.1099	0.1116	0.1139
60	]2	64	64	64	0.08681	0.0884	0.06948	0.35475	0.36128	0.0884	35.67	1.36	1.43	1.97	46.61	0.0668	0.074	0.0772	0.0783	0.0804	0.0817	0.0831	0.084	0.0851	0.0855	0.0858	0.0864	0.0865	0.0861	0.0857	0.0853	0.0863	0.0871	0.0872	0.0882	0.0893	0.0904	0.0915	0.0923	0.0925	0.0936	0.0952	0.097	0.0988	0.0998	0.1003	0.101	0.1012	0.1021	0.1033	0.1055
61	^2	61	61	61	0.08051	0.08203	0.06463	0.3544	0.3611	0.08203	34.4	1.29	1.33	1.85	45.97	0.0523	0.0662	0.0699	0.0739	0.0754	0.0768	0.077	0.0778	0.0792	0.0795	0.0799	0.0802	0.0805	0.0803	0.0798	0.0794	0.0801	0.0806	0.0808	0.0817	0.0829	0.0842	0.085	0.0854	0.0858	0.0866	0.0882	0.0897	0.0911	0.0924	0.0929	0.0928	0.0932	0.0942	0.096	0.0973
62	_2	58	58	58	0.07779	0.0793	0.06235	0.35449	0.36138	0.0793	33.84	1.23	1.37	1.85	48.04	0.0611	0.0647	0.0684	0.07	0.0717	0.0738	0.075	0.0753	0.076	0.0767	0.0769	0.0776	0.0777	0.0776	0.0771	0.0769	0.0773	0.078	0.078	0.0791	0.0801	0.0816	0.0821	0.0823	0.0828	0.0836	0.0852	0.0866	0.088	0.0891	0.0895	0.0898	0.0905	0.0908	0.092	0.0937
63	A3	54	54	54	0.09218	0.09399	0.07382	0.35454	0.36153	0.09399	36.74	1.28	1.49	1.97	49.21	0.0679	0.075	0.0785	0.0828	0.0861	0.0875	0.0881	0.089	0.0903	0.0908	0.0913	0.0916	0.0919	0.0918	0.0913	0.091	0.092	0.0925	0.0927	0.0938	0.095	0.0964	0.0972	0.0978	0.0983	0.0991	0.1007	0.1025	0.1042	0.1053	0.1056	0.1061	0.1067	0.1077	0.1089	0.111
64	B3	51	51	51	0.08046	0.08197	0.06451	0.35456	0.36119	0.08197	34.39	1.3	1.36	1.88	46.33	0.0596	0.0682	0.0717	0.0721	0.0748	0.0767	0.0776	0.0777	0.0785	0.0791	0.08	0.0801	0.0803	0.08	0.0796	0.0793	0.08	0.0807	0.0807	0.0816	0.0828	0.0841	0.085	0.0854	0.0858	0.0865	0.088	0.0898	0.0912	0.0921	0.0924	0.0928	0.0936	0.0943	0.0956	0.098
