testdata/s_curve_256.cube
TITLE "S-curve 256"
LUT_1D_SIZE 256
DOMAIN_MIN 0.0
DOMAIN_MAX 1.0
0.000000
0.002175
0.004377
0.006605
0.008859
0.011140
0.013447
0.015782
0.018143
0.020532
0.022949
0.025393
0.027865
0.030365
0.032894
0.035451
0.038036
0.040650
0.043293
0.045965
0.048666
0.051396
0.054156
0.056945
0.059764
0.062613
0.065491
0.068400
0.071339
0.074308
0.077307
0.080337
0.083398
0.086489
0.089611
0.092763
0.095946
0.099161
0.102406
0.105682
0.108989
0.112327
0.115696
0.119097
0.122528
0.125991
0.129484
0.133009
0.136565
0.140151
0.143769
0.147417
0.151097
0.154807
0.158548
0.162320
0.166122
0.169955
0.173818
0.177711
0.181634
0.185587
0.189570
0.193583
0.197625
0.201697
0.205797
0.209927
0.214085
0.218272
0.222487
0.226730
0.231001
0.235299
0.239625
0.243978
0.248357
0.252763
0.257195
0.261653
0.266136
0.270644
0.275177
0.279735
0.284316
0.288921
0.293550
0.298201
0.302875
0.307571
0.312288
0.317027
0.321787
0.326566
0.331366
0.336185
0.341023
0.345879
0.350754
0.355645
0.360554
0.365479
0.370420
0.375376
0.380347
0.385332
0.390331
0.395343
0.400367
0.405404
0.410451
0.415510
0.420579
0.425657
0.430745
0.435841
0.440945
0.446056
0.451173
0.456297
0.461426
0.466559
0.471697
0.476838
0.481982
0.487129
0.492277
0.497425
0.502575
0.507723
0.512871
0.518018
0.523162
0.528303
0.533441
0.538574
0.543703
0.548827
0.553944
0.559055
0.564159
0.569255
0.574343
0.579421
0.584490
0.589549
0.594596
0.599633
0.604657
0.609669
0.614668
0.619653
0.624624
0.629580
0.634521
0.639446
0.644355
0.649246
0.654121
0.658977
0.663815
0.668634
0.673434
0.678213
0.682973
0.687712
0.692429
0.697125
0.701799
0.706450
0.711079
0.715684
0.720265
0.724823
0.729356
0.733864
0.738347
0.742805
0.747237
0.751643
0.756022
0.760375
0.764701
0.768999
0.773270
0.777513
0.781728
0.785915
0.790073
0.794203
0.798303
0.802375
0.806417
0.810430
0.814413
0.818366
0.822289
0.826182
0.830045
0.833878
0.837680
0.841452
0.845193
0.848903
0.852583
0.856231
0.859849
0.863435
0.866991
0.870516
0.874009
0.877472
0.880903
0.884304
0.887673
0.891011
0.894318
0.897594
0.900839
0.904054
0.907237
0.910389
0.913511
0.916602
0.919663
0.922693
0.925692
0.928661
0.931600
0.934509
0.937387
0.940236
0.943055
0.945844
0.948604
0.951334
0.954035
0.956707
0.959350
0.961964
0.964549
0.967106
0.969635
0.972135
0.974607
0.977051
0.979468
0.981857
0.984218
0.986553
0.988860
0.991141
0.993395
0.995623
0.997825
1.000000
