testdata/test_s_curve.cube
TITLE "Test S Curve"
LUT_1D_SIZE 5
0.0000
0.1800
0.5000
0.8200
1.0000
